symbols/web/location_off/materialsymbolsoutlined/location_off_wght600gradN25fill1_40px.svg

<svg xmlns="http://www.w3.org/2000/svg" height="40" width="40"><path d="m34.75 38.625-7.958-7.958q-1.417 1.541-3.104 3.166Q22 35.458 20 37.125 13.083 31.25 9.688 26.25q-3.396-5-3.396-9.25 0-1.583.291-3.021.292-1.437.834-2.687L1.333 5.208l2.084-2.125 33.416 33.459ZM30.5 26l-7.917-7.917q.25-.25.417-.625.167-.375.167-.791 0-1.292-.938-2.229Q21.292 13.5 20 13.5q-.417 0-.792.167-.375.166-.625.416l-7.708-7.666q1.875-1.667 4.229-2.563 2.354-.896 4.896-.896 5.458 0 9.583 3.813Q33.708 10.583 33.708 17q0 2.083-.812 4.312-.813 2.23-2.396 4.688Z"/></svg>

<svg xmlns="http://www.w3.org/2000/svg" height="40" width="40"><path d="M34.75 38.625 26.792 30.667Q25.375 32.208 23.688 33.833Q22 35.458 20 37.125Q13.083 31.25 9.688 26.25Q6.292 21.25 6.292 17Q6.292 15.417 6.583 13.979Q6.875 12.542 7.417 11.292L1.333 5.208L3.417 3.083L36.833 36.542ZM30.5 26 22.583 18.083Q22.833 17.833 23 17.458Q23.167 17.083 23.167 16.667Q23.167 15.375 22.229 14.438Q21.292 13.5 20 13.5Q19.583 13.5 19.208 13.667Q18.833 13.833 18.583 14.083L10.875 6.417Q12.75 4.75 15.104 3.854Q17.458 2.958 20 2.958Q25.458 2.958 29.583 6.771Q33.708 10.583 33.708 17Q33.708 19.083 32.896 21.312Q32.083 23.542 30.5 26Z"/></svg>
